core/assets/icons/character.dragon.outline.svg

<svg width="24" height="24" viewBox="0 0 24 24" xmlns="http://www.w3.org/2000/svg"><g id="character=dragon, state=outline" clip-path="url(#clip0_4929_1533)"><g id="Vector"><path d="M24.0294 12.5806L20.7727 9.76624L24.0046 5.08063H19.3508L13 0V5.08063H5C2.23828 5.0813 0.00073 7.31891 0 10.0806V20.0806H7V22.0806H9V18.0806H2V14.9948L3.5 16.4948L5 14.9948L6.5 16.4948L9.40729 13.5875L7.99311 12.1733L6.5 13.6664L5 12.1665L3.5 13.6664L2 12.1665V10.0806C2.00299 8.42438 3.34375 7.08362 5 7.08063H15V4.16126L18.6492 7.08063H20.1956L18.1082 10.1069L20.9706 12.5806L18.1081 15.0543L20.1955 18.0806L17 18.0806V22.0806H19V20.0806H24.0047L20.7727 15.395L24.0294 12.5806Z"/><path d="M13.5 12.0806C14.3284 12.0806 15 11.4091 15 10.5806C15 9.7522 14.3284 9.08063 13.5 9.08063C12.6716 9.08063 12 9.7522 12 10.5806C12 11.4091 12.6716 12.0806 13.5 12.0806Z"/><path d="M12.1008 4.08063L7 0V4.08063H12.1008Z"/></g></g><defs><clipPath id="clip0_4929_1533"><rect width="24" height="24"/></clipPath></defs></svg>

<svg xmlns="http://www.w3.org/2000/svg" width="24" height="24" fill="none"><g fill="#191C22" clip-path="url(#a)"><path d="m24.03 12.58-3.257-2.814 3.232-4.685H19.35L13 0v5.08H5a5 5 0 0 0-5 5v10h7v2h2v-4H2v-3.085l1.5 1.5 1.5-1.5 1.5 1.5 2.907-2.908-1.414-1.414L6.5 13.666l-1.5-1.5-1.5 1.5-1.5-1.5v-2.085a3.005 3.005 0 0 1 3-3h10V4.16l3.65 2.92h1.546l-2.088 3.026 2.863 2.474-2.863 2.473 2.087 3.027H17v4h2v-2h5.005l-3.232-4.686 3.256-2.814Z"/><path d="M13.5 12.08a1.5 1.5 0 1 0 0-3 1.5 1.5 0 0 0 0 3ZM12.1 4.08 7 0v4.08h5.1Z"/></g><defs><clipPath id="a"><path fill="#fff" d="M0 0h24v24H0z"/></clipPath></defs></svg>
